assets/images/mail.svg

<svg xmlns="http://www.w3.org/2000/svg" height="24" viewBox="0 0 24 24" width="24"><path d="M20 4H4c-1.1 0-1.99.9-1.99 2L2 18c0 1.1.9 2 2 2h16c1.1 0 2-.9 2-2V6c0-1.1-.9-2-2-2zm0 4l-8 5-8-5V6l8 5 8-5v2z"/><path d="M0 0h24v24H0z" fill="none"/></svg>

<svg viewBox="0 0 26 26">
  <g fill="none" fill-rule="evenodd">
    <path d="M20,4 L4,4 C2.9,4 2.01,4.9 2.01,6 L2,18 C2,19.1 2.9,20 4,20 L20,20 C21.1,20 22,19.1 22,18 L22,6 C22,4.9 21.1,4 20,4 Z M20,8 L12,13 L4,8 L4,6 L12,11 L20,6 L20,8 Z" fill="currentColor" fill-rule="nonzero" transform="translate(1.000000, 1.000000)"/>
    <path d="M0 0L24 0 24 24 0 24z" transform="translate(1.000000, 1.000000)"/>
  </g>
</svg>
